images_files/dinosaursVG/trex.svg

<svg width="284" height="110" viewBox="0 0 284 110" fill="none" xmlns="http://www.w3.org/2000/svg">
<path d="M2.75682 29.3005C2.75682 29.3005 1.05398 23.3673 2.75682 20.0759C4.45965 16.7845 21.1823 9.72524 24.5007 8.81577C27.8191 7.9063 33.4078 2.96917 35.1107 2.40617C36.8136 1.84316 41.4416 1.88649 43.3192 2.40617C45.1967 2.92585 47.1396 4.46331 47.1396 4.46331C47.1396 4.46331 59.8672 4.70154 64.6701 7.04014C69.473 9.37874 74.7998 16.2648 74.7998 16.2648C74.7998 16.2648 82.528 21.5917 88.2478 22.2413C93.9676 22.8909 97.3731 17.5638 113.703 17.0441C130.033 16.5244 145.227 19.2095 150.423 20.8552C155.619 22.5009 166.185 25.0128 173.171 26.0089C180.157 27.0049 238.577 31.8988 246 32.2885C253.423 32.6783 283.506 34.7571 283.506 34.7571C283.506 34.7571 183.912 44.8045 177.275 46.1038C170.639 47.4031 155.619 56.1945 155.619 56.1945L150.423 58.3599C150.423 58.3599 152.344 63.8168 155.619 66.5018C158.894 69.1869 160.684 69.2302 161.382 70.5728C162.081 71.9153 170.158 101.538 170.158 101.538C170.158 101.538 165.836 107.471 164.133 108.078C162.43 108.684 147.672 108.078 147.672 108.078C147.672 108.078 150.947 105.479 154.527 102.881C158.108 100.282 157.889 100.326 157.889 100.326C157.889 100.326 156.536 86.9865 155.619 86.0337C154.702 85.081 142.04 75.7697 142.084 76.2894M2.75682 29.3005C2.75682 33.1116 9.56808 37.4424 12.8865 37.4424C16.2049 37.4424 45.4149 35.5802 48.777 37.4424C52.1391 39.3046 62.9235 48.6156 66.5913 52.1235C70.259 55.6315 69.8221 54.9822 73.4898 56.3247C77.1575 57.6673 80.7378 57.6673 80.7378 57.6673M2.75682 29.3005C2.75682 29.3005 26.5529 27.3516 30.9628 26.0524C35.3727 24.7531 43.3192 26.0524 43.3192 26.0524M142.084 76.2894L154.527 43.1156M142.084 76.2894L145.62 96.1247C145.62 96.1247 141.167 107.558 139.464 108.078C137.761 108.597 125.274 108.078 122.741 108.078C120.209 108.078 128.635 103.487 130.164 101.538C131.692 99.5893 129.247 85.1676 126.889 79.7974C124.531 74.4272 121.911 68.4074 120.689 64.7261M128.286 41.21C128.286 41.21 118.637 58.3599 120.689 64.7261M120.689 64.7261L89.3829 59.0098M89.3829 59.0098C93.1815 57.6673 96.9801 53.5963 96.9801 53.5963M89.3829 59.0098L85.8027 60.6555C85.8027 60.6555 90.0378 64.5965 89.3829 66.3722C88.7279 68.1479 76.2406 74.5141 76.2406 74.5141L80.7378 68.4943L74.2322 71.6124L81.4364 64.2068C81.4364 64.2068 79.2096 60.8721 79.4717 59.746C79.7337 58.62 80.7378 57.6673 80.7378 57.6673M86.6322 50.3482L80.7378 57.6673" stroke="white" stroke-width="3"/>
</svg>

<svg xmlns="http://www.w3.org/2000/svg" width="284" height="110" fill="none" xmlns:v="https://vecta.io/nano"><path d="M2.757 29.301s-1.703-5.933 0-9.225S21.182 9.725 24.501 8.816s8.907-5.847 10.61-6.41 6.331-.52 8.209 0 3.82 2.057 3.82 2.057 12.728.238 17.531 2.577 10.13 9.225 10.13 9.225 7.728 5.327 13.448 5.976 9.125-4.677 25.455-5.197 31.524 2.165 36.72 3.811 15.762 4.158 22.748 5.154 65.406 5.89 72.829 6.28l37.506 2.469-106.231 11.347c-6.636 1.299-21.656 10.091-21.656 10.091l-5.196 2.165s1.921 5.457 5.196 8.142 5.065 2.728 5.763 4.071 8.776 30.965 8.776 30.965-4.322 5.933-6.025 6.54-16.461 0-16.461 0 3.275-2.599 6.855-5.197 3.362-2.555 3.362-2.555-1.353-13.339-2.27-14.292-13.579-10.264-13.535-9.744M2.757 29.301c0 3.811 6.811 8.142 10.13 8.142s32.528-1.862 35.891 0 14.146 11.173 17.814 14.681 3.231 2.859 6.898 4.201a23.68 23.68 0 0 0 7.248 1.343M2.757 29.301s23.796-1.949 28.206-3.248 12.356 0 12.356 0m98.765 50.237l12.443-33.174m-12.443 33.174l3.536 19.835s-4.453 11.433-6.156 11.953-14.19 0-16.723 0 5.894-4.591 7.423-6.54-.917-16.37-3.275-21.741-4.978-11.39-6.2-15.071m7.597-23.516s-9.649 17.15-7.597 23.516m0 0L89.383 59.01m0 0c3.799-1.343 7.597-5.413 7.597-5.413m-7.597 5.413l-3.58 1.646s4.235 3.941 3.58 5.717-13.142 8.142-13.142 8.142l4.497-6.02-6.506 3.118 7.204-7.406s-2.227-3.335-1.965-4.461 1.266-2.079 1.266-2.079m5.894-7.319l-5.894 7.319" stroke="#fff" stroke-width="3"/></svg>
